detdpdemo_UI/app/images/icon/account_circle.svg

<svg fill="#FFFFFF" height="48" viewBox="0 0 24 24" width="48" xmlns="http://www.w3.org/2000/svg">
    <path d="M12 2C6.48 2 2 6.48 2 12s4.48 10 10 10 10-4.48 10-10S17.52 2 12 2zm0 3c1.66 0 3 1.34 3 3s-1.34 3-3 3-3-1.34-3-3 1.34-3 3-3zm0 14.2c-2.5 0-4.71-1.28-6-3.22.03-1.99 4-3.08 6-3.08 1.99 0 5.97 1.09 6 3.08-1.29 1.94-3.5 3.22-6 3.22z"/>
    <path d="M0 0h24v24H0z" fill="none"/>
</svg>

<?xml version="1.0" encoding="UTF-8"?><!DOCTYPE svg PUBLIC "-//W3C//DTD SVG 1.1//EN" "http://www.w3.org/Graphics/SVG/1.1/DTD/svg11.dtd"><svg xmlns="http://www.w3.org/2000/svg" xmlns:xlink="http://www.w3.org/1999/xlink" version="1.1" width="24" height="24" viewBox="0 0 24 24"><path d="M12,19.2C9.5,19.2 7.29,17.92 6,16C6.03,14 10,12.9 12,12.9C14,12.9 17.97,14 18,16C16.71,17.92 14.5,19.2 12,19.2M12,5C13.66,5 15,6.34 15,8C15,9.66 13.66,11 12,11C10.34,11 9,9.66 9,8C9,6.34 10.34,5 12,5M12,2C6.48,2 2,6.48 2,12C2,17.52 6.48,22 12,22C17.52,22 22,17.52 22,12C22,6.47 17.5,2 12,2Z" /></svg>
